X: 2
T: The Ivy Leaf
R: reel
M: 4/4
L: 1/8
K: Amix
A2 ed cdec|Acec dBGB|A2 ed cdec|B~E3 GABd|A2 ed cdec|Acec dBGB|A2 ed cdec|B~E3 GABd||e~a3 edBd|e~g3 dBGB|e~a3 edBA|B~E3 GABd|e~a3 edBd|e~g3 dBGB|A2 AB =cBcd|e/f/g fa gedB||


Tune 1112	Setting 22922

